X:
T:Kein schöner Land
C:Stimme in b
M:3/4
L:1/8
K:A
V:1
E E E | A2 c2 B A | B3 :|
c A B | (ce) d c B A | (Bd) c B A B | c3 c A B | (ce) d c B A |
[M:2/4] (Bd) c B | A2 G2 | [M:3/4] A3 |]
V:2
z3 | (& C6 & C6 &) | (& E3 & E3 &) :|
z3 | (& A6 & A,6 &) | (& G6 & E6 &) | (& A6 & A6 &) | (& A6 & A,6 &) |
[M:2/4] (& E4 & E4 &) | (& E2 & C2 &) (& DE & DE &) | [M:3/4] (& C3 & C3 &) |]
W:
W:aus: In Froher Rund', Volkslieder für die Veeh-Harfe, 2016.